public/assets/profile.svg

<svg xmlns="http://www.w3.org/2000/svg" width="24" height="24" viewBox="0 0 24 24" fill="none">
  <path fill-rule="evenodd" clip-rule="evenodd" d="M16 6.75C15.3096 6.75 14.75 7.30964 14.75 8C14.75 8.69036 15.3096 9.25 16 9.25C16.6904 9.25 17.25 8.69036 17.25 8C17.25 7.30964 16.6904 6.75 16 6.75ZM13.25 8C13.25 6.48122 14.4812 5.25 16 5.25C17.5188 5.25 18.75 6.48122 18.75 8C18.75 9.51878 17.5188 10.75 16 10.75C14.4812 10.75 13.25 9.51878 13.25 8Z" fill="#697C89"/>
  <path fill-rule="evenodd" clip-rule="evenodd" d="M11.9426 1.25H12.0574C14.3658 1.24999 16.1748 1.24998 17.5863 1.43975C19.031 1.63399 20.1711 2.03933 21.0659 2.93414C21.9607 3.82895 22.366 4.96897 22.5603 6.41371C22.75 7.82519 22.75 9.63423 22.75 11.9426V12.0574C22.75 14.3658 22.75 16.1748 22.5603 17.5863C22.366 19.031 21.9607 20.1711 21.0659 21.0659C20.1711 21.9607 19.031 22.366 17.5863 22.5603C16.1748 22.75 14.3658 22.75 12.0574 22.75H11.9426C9.63423 22.75 7.82519 22.75 6.41371 22.5603C4.96897 22.366 3.82895 21.9607 2.93414 21.0659C2.03933 20.1711 1.63399 19.031 1.43975 17.5863C1.24998 16.1748 1.24999 14.3658 1.25 12.0574V11.9426C1.24999 9.63423 1.24998 7.82519 1.43975 6.41371C1.63399 4.96897 2.03933 3.82895 2.93414 2.93414C3.82895 2.03933 4.96897 1.63399 6.41371 1.43975C7.82519 1.24998 9.63423 1.24999 11.9426 1.25ZM3.9948 20.0052C3.42514 19.4355 3.09825 18.6648 2.92637 17.3864C2.77289 16.2449 2.75296 14.7885 2.75038 12.8401L4.24546 11.5319C4.85958 10.9946 5.78515 11.0254 6.36216 11.6024L10.6519 15.8922C11.5968 16.8371 13.0843 16.9659 14.1776 16.1975L14.4758 15.988C15.334 15.3849 16.4951 15.4547 17.2747 16.1564L20.4983 19.0576C20.5334 19.0892 20.5706 19.1168 20.6095 19.1406C20.4478 19.4815 20.2487 19.7617 20.0052 20.0052C19.4355 20.5749 18.6648 20.9018 17.3864 21.0736C16.0864 21.2484 14.3782 21.25 12 21.25C9.62177 21.25 7.91356 21.2484 6.61358 21.0736C5.33517 20.9018 4.56445 20.5749 3.9948 20.0052ZM6.61358 2.92637C5.33517 3.09825 4.56445 3.42514 3.9948 3.9948C3.42514 4.56445 3.09825 5.33517 2.92637 6.61358C2.78124 7.69307 2.75552 9.05407 2.75098 10.8465L3.25771 10.4031C4.46613 9.34572 6.28741 9.40636 7.42282 10.5418L11.7125 14.8315C12.1421 15.261 12.8182 15.3196 13.3152 14.9703L13.6134 14.7607C15.0437 13.7555 16.9788 13.872 18.2782 15.0415L21.0522 17.5381C21.0596 17.4883 21.0667 17.4378 21.0736 17.3864C21.2484 16.0864 21.25 14.3782 21.25 12C21.25 9.62177 21.2484 7.91356 21.0736 6.61358C20.9018 5.33517 20.5749 4.56445 20.0052 3.9948C19.4355 3.42514 18.6648 3.09825 17.3864 2.92637C16.0864 2.75159 14.3782 2.75 12 2.75C9.62177 2.75 7.91356 2.75159 6.61358 2.92637Z" fill="#697C89"/>
</svg>

<svg xmlns="http://www.w3.org/2000/svg" width="24" height="24" viewBox="0 0 24 24" fill="none"><path fill-rule="evenodd" clip-rule="evenodd" d="M16 6.75a1.25 1.25 0 1 0 0 2.5 1.25 1.25 0 0 0 0-2.5ZM13.25 8a2.75 2.75 0 1 1 5.5 0 2.75 2.75 0 0 1-5.5 0Z" fill="#697C89"/><path fill-rule="evenodd" clip-rule="evenodd" d="M11.943 1.25h.114c2.309 0 4.118 0 5.53.19 1.444.194 2.584.6 3.479 1.494.895.895 1.3 2.035 1.494 3.48.19 1.411.19 3.22.19 5.529v.114c0 2.309 0 4.118-.19 5.53-.194 1.444-.6 2.584-1.494 3.479-.895.895-2.035 1.3-3.48 1.494-1.411.19-3.22.19-5.529.19h-.114c-2.309 0-4.118 0-5.53-.19-1.444-.194-2.584-.6-3.479-1.494-.895-.895-1.3-2.035-1.494-3.48-.19-1.411-.19-3.22-.19-5.529v-.114c0-2.309 0-4.118.19-5.53.194-1.444.6-2.584 1.494-3.479.895-.895 2.035-1.3 3.48-1.494 1.411-.19 3.22-.19 5.529-.19ZM3.995 20.005c-.57-.57-.897-1.34-1.069-2.619-.153-1.141-.173-2.597-.176-4.546l1.495-1.308a1.55 1.55 0 0 1 2.117.07l4.29 4.29a2.75 2.75 0 0 0 3.526.306l.298-.21a2.25 2.25 0 0 1 2.799.168l3.223 2.902a.866.866 0 0 0 .111.083 3.04 3.04 0 0 1-.604.864c-.57.57-1.34.897-2.619 1.069-1.3.174-3.008.176-5.386.176s-4.086-.002-5.386-.176c-1.279-.172-2.05-.5-2.62-1.069ZM6.614 2.926c-1.279.172-2.05.5-2.62 1.069-.569.57-.896 1.34-1.068 2.619-.145 1.08-.17 2.44-.175 4.233l.507-.444a3.05 3.05 0 0 1 4.165.139l4.29 4.29a1.25 1.25 0 0 0 1.602.138l.298-.21a3.75 3.75 0 0 1 4.665.281l2.774 2.497.022-.152c.174-1.3.176-3.008.176-5.386s-.002-4.086-.176-5.386c-.172-1.279-.5-2.05-1.069-2.62-.57-.569-1.34-.896-2.619-1.068-1.3-.174-3.008-.176-5.386-.176s-4.086.002-5.386.176Z" fill="#697C89"/></svg>
